packages/core/src/svgs/tokens/mono/SONNE.svg

<svg width="24" height="24" viewBox="0 0 24 24" fill="none" xmlns="http://www.w3.org/2000/svg">
<path d="M12 3.47058C12.3235 3.47058 12.5882 3.77058 12.5882 4.14117V4.87645C12.5882 5.24704 12.3235 5.54704 12 5.54704C11.6765 5.54704 11.4118 5.25293 11.4118 4.87645V4.14117C11.4118 3.77058 11.6765 3.47058 12 3.47058ZM18.4117 14.647H4.99999C5.05293 15.0529 5.14117 15.4471 5.25881 15.8236H16.1177L17.4706 17.3C17.968 16.492 18.2888 15.5879 18.4117 14.647ZM16.8352 18.1765H3.01176C2.45294 18.1765 2 17.647 2 17H15.6941L16.8529 18.1588L16.8352 18.1765ZM18.4647 13.4706H4.94116C4.98823 12.3529 5.31175 11.3058 5.83528 10.3883L7.48234 12.294H18.3059C18.394 12.6764 18.447 13.0706 18.4647 13.4706ZM17.9353 11.1176C17.4781 10.0402 16.7492 9.09981 15.8198 8.38839C14.8905 7.67697 13.7924 7.21886 12.633 7.05881C11.4735 6.89877 10.2924 7.04228 9.20511 7.47532C8.11776 7.90836 7.16137 8.61611 6.4294 9.52939L7.89999 11.1176H17.9411H17.9353ZM3.7647 19.3529C3.7647 19.9999 4.19411 20.5293 4.71764 20.5293H19.2824C19.8117 20.5293 20.2353 19.9999 20.2353 19.3529H3.7647ZM18.6353 18.1765H21.0118C21.5353 18.1765 21.9588 17.647 21.9588 17H19.1058C18.9705 17.4117 18.8117 17.8 18.6353 18.1765ZM2.6647 12.8823C2.3 12.8823 2 13.1471 2 13.4706C2 13.7941 2.29411 14.0589 2.6647 14.0589H3.39411C3.75881 14.0589 4.05882 13.7941 4.05882 13.4706C4.05882 13.1471 3.7647 12.8823 3.39411 12.8823H2.6647ZM4.27058 8.31175C4.11765 8.22459 3.93638 8.20164 3.76655 8.24797C3.59673 8.29428 3.45221 8.40607 3.3647 8.55881C3.17647 8.88233 3.28823 9.2941 3.59999 9.47645L4.23529 9.84704C4.55294 10.0294 4.95882 9.92352 5.14117 9.59998C5.3294 9.27646 5.21764 8.86469 4.89999 8.68234L4.27058 8.31175ZM7.02352 4.81175C7.17645 4.7246 7.35771 4.70165 7.52754 4.74797C7.69738 4.79428 7.84189 4.90607 7.92941 5.05881L8.29411 5.68822C8.47646 6.01176 8.37057 6.42352 8.05294 6.61175C7.7294 6.79411 7.32352 6.68822 7.14117 6.36469L6.77647 5.7294C6.68873 5.57467 6.66547 5.39163 6.71171 5.21988C6.75795 5.04815 6.86998 4.90152 7.02352 4.81175ZM21.3353 12.8823C21.7 12.8823 22 13.1471 22 13.4706C22 13.7941 21.7059 14.0589 21.3353 14.0589H20.6059C20.2412 14.0589 19.9412 13.7941 19.9412 13.4706C19.9412 13.1471 20.2353 12.8823 20.6059 12.8823H21.3353ZM20.6412 8.55881C20.4529 8.23527 20.047 8.12939 19.7294 8.31175L19.0999 8.68234C18.9475 8.77308 18.8367 8.92013 18.7915 9.09178C18.7464 9.26345 18.7705 9.44597 18.8588 9.59998C19.0353 9.92352 19.4471 10.0294 19.7647 9.84704L20.3941 9.47645C20.7117 9.2941 20.8235 8.88233 20.6353 8.55881H20.6412ZM16.0706 5.05881C16.2471 4.73527 16.6589 4.62352 16.9765 4.81175C17.2941 4.99411 17.4058 5.40587 17.2235 5.7294L16.8588 6.36469C16.6764 6.68822 16.2706 6.79411 15.9471 6.61175C15.7929 6.52097 15.6811 6.37285 15.6358 6.19977C15.5906 6.0267 15.6157 5.84277 15.7059 5.68822L16.0706 5.05881Z" fill="white"/>
</svg>

<svg xmlns="http://www.w3.org/2000/svg" width="24" height="24" fill="none" viewBox="0 0 24 24">
    <path fill="#fff" d="M12 3.47c.323 0 .588.3.588.671v.735c0 .371-.264.671-.588.671s-.588-.294-.588-.67V4.14c0-.37.264-.67.588-.67m6.412 11.177H5q.08.61.259 1.177h10.859L17.47 17.3a6.7 6.7 0 0 0 .94-2.653m-1.577 3.53H3.012C2.452 18.177 2 17.647 2 17h13.694l1.159 1.159zm1.63-4.706H4.94a6.8 6.8 0 0 1 .894-3.083l1.647 1.906h10.824c.088.382.141.777.159 1.177m-.53-2.353A6.765 6.765 0 0 0 6.43 9.529l1.47 1.589h10.041zm-14.17 8.235c0 .647.43 1.176.953 1.176h14.564c.53 0 .953-.53.953-1.176zm14.87-1.177h2.377c.523 0 .947-.529.947-1.176h-2.853c-.136.412-.294.8-.47 1.177m-15.97-5.294c-.365 0-.665.265-.665.589s.294.588.665.588h.73c.364 0 .664-.265.664-.588 0-.324-.294-.589-.665-.589zm1.606-4.57a.665.665 0 0 0-.906.247.673.673 0 0 0 .235.917l.635.371a.66.66 0 0 0 .906-.247.67.67 0 0 0-.241-.918zm2.753-3.5a.665.665 0 0 1 .905.247l.365.63a.683.683 0 0 1-.241.923.665.665 0 0 1-.912-.247l-.365-.636a.676.676 0 0 1 .248-.917m14.311 8.07c.365 0 .665.265.665.589s-.294.588-.665.588h-.73c-.364 0-.664-.265-.664-.588 0-.324.294-.589.665-.589zm-.694-4.323a.67.67 0 0 0-.912-.247l-.63.37a.677.677 0 0 0-.24.918c.176.324.588.43.906.247l.63-.37a.67.67 0 0 0 .24-.918zm-4.57-3.5a.653.653 0 0 1 .906-.247.677.677 0 0 1 .247.917l-.365.636a.665.665 0 0 1-1.223-.165.68.68 0 0 1 .07-.512z"/>
</svg>
